resources/images/warning.svg

<?xml version="1.0" encoding="UTF-8"?>
<svg width="20px" height="18px" viewBox="0 0 20 18" version="1.1" xmlns="http://www.w3.org/2000/svg" xmlns:xlink="http://www.w3.org/1999/xlink">
    <!-- Generator: sketchtool 63.1 (101010) - https://sketch.com -->
    <title>DF91CCE9-6B4A-429D-8E69-B56E5A5F6C76</title>
    <desc>Created with sketchtool.</desc>
    <g id="desktop" stroke="none" stroke-width="1" fill="none" fill-rule="evenodd">
        <g id="video-details" transform="translate(-56.000000, -896.000000)" fill="#D24000" fill-rule="nonzero">
            <g id="Icons-/-alerts-/-warning-/-triangle" transform="translate(56.000000, 896.000000)">
                <g id="round-warning-24px">
                    <path d="M8.27569406,0.9975 C9.04315971,-0.3325 10.9568403,-0.3325 11.7243059,0.9975 L11.7243059,0.9975 L19.229522,14.0075 C19.9969876,15.3375 19.0401473,17.0075 17.505216,17.0075 L17.505216,17.0075 L2.49478396,17.0075 C0.959852662,17.0075 0.00301236995,15.3375 0.770478021,14.0075 L0.770478021,14.0075 Z M10.05,12 C9.35964406,12 8.8,12.5596441 8.8,13.25 C8.8,13.9403559 9.35964406,14.5 10.05,14.5 C10.7403559,14.5 11.3,13.9403559 11.3,13.25 C11.3,12.5596441 10.7403559,12 10.05,12 Z M10.05,4 L9.9142963,4.0058963 C9.29,4.06044444 8.8,4.48666667 8.8,5 L8.8,5 L8.8,9 C8.8,9.55 9.3625,10 10.05,10 L10.05,10 L10.1857037,9.9941037 C10.81,9.93955556 11.3,9.51333333 11.3,9 L11.3,9 L11.3,5 C11.3,4.45 10.7375,4 10.05,4 L10.05,4 Z" id="Shape"></path>
                </g>
            </g>
        </g>
    </g>
</svg>

<svg width="20" height="18" xmlns="http://www.w3.org/2000/svg"><path d="M8.276.998c.767-1.33 2.68-1.33 3.448 0l7.506 13.01c.767 1.33-.19 3-1.725 3H2.495c-1.535 0-2.492-1.67-1.725-3zM10.05 12a1.25 1.25 0 100 2.5 1.25 1.25 0 000-2.5zm0-8l-.136.006C9.29 4.06 8.8 4.486 8.8 5v4c0 .55.563 1 1.25 1l.136-.006C10.81 9.94 11.3 9.514 11.3 9V5c0-.55-.563-1-1.25-1z" fill="#D24000" fill-rule="nonzero"/></svg>
